source/img/icon-mix.svg

<svg fill="none" height="68" viewBox="0 0 68 68" width="68" xmlns="http://www.w3.org/2000/svg" xmlns:xlink="http://www.w3.org/1999/xlink"><filter id="a" color-interpolation-filters="sRGB" filterUnits="userSpaceOnUse" height="68" width="68" x="0" y="0"><feFlood flood-opacity="0" result="BackgroundImageFix"/><feColorMatrix in="SourceAlpha" type="matrix" values="0 0 0 0 0 0 0 0 0 0 0 0 0 0 0 0 0 0 127 0"/><feOffset dx="4" dy="6"/><feGaussianBlur stdDeviation="6"/><feColorMatrix type="matrix" values="0 0 0 0 0.223529 0 0 0 0 0.490196 0 0 0 0 1 0 0 0 0.12 0"/><feBlend in2="BackgroundImageFix" mode="normal" result="effect1_dropShadow"/><feBlend in="SourceGraphic" in2="effect1_dropShadow" mode="normal" result="shape"/></filter><clipPath id="b"><path d="m16 14h28v28h-28z"/></clipPath><g filter="url(#a)"><rect fill="#397dff" height="44" rx="8" width="44" x="8" y="6"/></g><g clip-path="url(#b)" fill="#fff"><path d="m41.4546 14h-22.9091c-1.4039 0-2.5455 1.1416-2.5455 2.5455v22.9091c0 1.4038 1.1416 2.5455 2.5455 2.5455h22.9091c1.4038 0 2.5455-1.1416 2.5455-2.5455v-22.9091c-.0001-1.4039-1.1417-2.5455-2.5455-2.5455zm1.2727 25.4546c0 .7016-.5711 1.2727-1.2727 1.2727h-22.9091c-.7016 0-1.2727-.5711-1.2727-1.2727v-22.9091c0-.7016.5711-1.2727 1.2727-1.2727h22.9091c.7016 0 1.2727.5711 1.2727 1.2727z"/><path d="m31.9096 29.271h-1.2727v-10.8182c0-.3518-.2846-.6364-.6363-.6364-.3518 0-.6364.2846-.6364.6364v10.8182h-1.2727c-.3518 0-.6364.2846-.6364.6363v2.5455c0 .3518.2846.6364.6364.6364h1.2727v4.4546c0 .3517.2846.6364.6364.6364.3517 0 .6363-.2847.6363-.6364v-4.4547h1.2727c.3518 0 .6364-.2846.6364-.6363v-2.5455c0-.3517-.2847-.6363-.6364-.6363zm-.6363 2.5454h-2.5455v-1.2727h2.5455z"/><path d="m39.5464 22.9073h-1.2727v-4.4545c0-.3518-.2847-.6364-.6364-.6364-.3518 0-.6364.2846-.6364.6364v4.4546h-1.2727c-.3518 0-.6364.2846-.6364.6363v2.5455c0 .3518.2846.6364.6364.6364h1.2727v10.8182c0 .3517.2846.6364.6364.6364.3517 0 .6364-.2847.6364-.6364v-10.8183h1.2727c.3517 0 .6363-.2846.6363-.6364v-2.5454c0-.3518-.2846-.6364-.6363-.6364zm-.6364 2.5455h-2.5455v-1.2727h2.5455z"/><path d="m24.2729 21.6346h-1.2727v-3.1818c0-.3518-.2846-.6364-.6364-.6364-.3517 0-.6363.2846-.6363.6364v3.1818h-1.2728c-.3517 0-.6363.2846-.6363.6364v2.5455c0 .3516.2846.6363.6363.6363h1.2728v12.0909c0 .3518.2846.6364.6363.6364.3518 0 .6364-.2846.6364-.6364v-12.0909h1.2727c.3518 0 .6364-.2847.6364-.6364v-2.5455c0-.3517-.2847-.6363-.6364-.6363zm-.6364 2.5455h-2.5454v-1.2727h2.5454z"/></g></svg>

<svg width="68" height="68" viewBox="0 0 68 68" fill="none" xmlns="http://www.w3.org/2000/svg">
<g filter="url(#filter0_d)">
<rect x="8" y="6" width="44" height="44" rx="8" fill="#397DFF"/>
</g>
<g clip-path="url(#clip0)">
<path d="M41.4546 14H18.5455C17.1416 14 16 15.1416 16 16.5455V39.4546C16 40.8584 17.1416 42.0001 18.5455 42.0001H41.4546C42.8584 42.0001 44.0001 40.8585 44.0001 39.4546V16.5455C44 15.1416 42.8584 14 41.4546 14ZM42.7273 39.4546C42.7273 40.1562 42.1562 40.7273 41.4546 40.7273H18.5455C17.8439 40.7273 17.2728 40.1562 17.2728 39.4546V16.5455C17.2728 15.8439 17.8439 15.2728 18.5455 15.2728H41.4546C42.1562 15.2728 42.7273 15.8439 42.7273 16.5455V39.4546Z" fill="white"/>
<path d="M31.9096 29.271H30.6369V18.4528C30.6369 18.101 30.3523 17.8164 30.0006 17.8164C29.6488 17.8164 29.3642 18.101 29.3642 18.4528V29.271H28.0915C27.7397 29.271 27.4551 29.5556 27.4551 29.9073V32.4528C27.4551 32.8046 27.7397 33.0892 28.0915 33.0892H29.3642V37.5438C29.3642 37.8955 29.6488 38.1802 30.0006 38.1802C30.3523 38.1802 30.6369 37.8955 30.6369 37.5438V33.0891H31.9096C32.2614 33.0891 32.546 32.8045 32.546 32.4528V29.9073C32.546 29.5556 32.2613 29.271 31.9096 29.271ZM31.2733 31.8164H28.7278V30.5437H31.2733V31.8164Z" fill="white"/>
<path d="M39.5464 22.9073H38.2737V18.4528C38.2737 18.101 37.989 17.8164 37.6373 17.8164C37.2855 17.8164 37.0009 18.101 37.0009 18.4528V22.9074H35.7282C35.3764 22.9074 35.0918 23.192 35.0918 23.5437V26.0892C35.0918 26.441 35.3764 26.7256 35.7282 26.7256H37.0009V37.5438C37.0009 37.8955 37.2855 38.1802 37.6373 38.1802C37.989 38.1802 38.2737 37.8955 38.2737 37.5438V26.7255H39.5464C39.8981 26.7255 40.1827 26.4409 40.1827 26.0891V23.5437C40.1827 23.1919 39.8981 22.9073 39.5464 22.9073ZM38.91 25.4528H36.3645V24.1801H38.91V25.4528Z" fill="white"/>
<path d="M24.2729 21.6346H23.0002V18.4528C23.0002 18.101 22.7156 17.8164 22.3638 17.8164C22.0121 17.8164 21.7275 18.101 21.7275 18.4528V21.6346H20.4547C20.103 21.6346 19.8184 21.9192 19.8184 22.271V24.8165C19.8184 25.1681 20.103 25.4528 20.4547 25.4528H21.7275V37.5437C21.7275 37.8955 22.0121 38.1801 22.3638 38.1801C22.7156 38.1801 23.0002 37.8955 23.0002 37.5437V25.4528H24.2729C24.6247 25.4528 24.9093 25.1681 24.9093 24.8164V22.2709C24.9093 21.9192 24.6246 21.6346 24.2729 21.6346ZM23.6365 24.1801H21.0911V22.9074H23.6365V24.1801Z" fill="white"/>
</g>
<defs>
<filter id="filter0_d" x="0" y="0" width="68" height="68" filterUnits="userSpaceOnUse" color-interpolation-filters="sRGB">
<feFlood flood-opacity="0" result="BackgroundImageFix"/>
<feColorMatrix in="SourceAlpha" type="matrix" values="0 0 0 0 0 0 0 0 0 0 0 0 0 0 0 0 0 0 127 0"/>
<feOffset dx="4" dy="6"/>
<feGaussianBlur stdDeviation="6"/>
<feColorMatrix type="matrix" values="0 0 0 0 0.223529 0 0 0 0 0.490196 0 0 0 0 1 0 0 0 0.12 0"/>
<feBlend mode="normal" in2="BackgroundImageFix" result="effect1_dropShadow"/>
<feBlend mode="normal" in="SourceGraphic" in2="effect1_dropShadow" result="shape"/>
</filter>
<clipPath id="clip0">
<rect width="28" height="28" fill="white" transform="translate(16 14)"/>
</clipPath>
</defs>
</svg>
